icons/scales-3-line.svg

<svg xmlns="http://www.w3.org/2000/svg" width="24" height="24" fill="none"><g clip-path="url(#a)"><g><path fill="#121212" d="M13 2V3.278L18 4.946L21.632 3.736L22.265 5.632L19.233 6.643L22.329 15.155C21.237 16.292 19.7 17 18 17C16.299 17 14.763 16.292 13.671 15.155L16.765 6.643L13 5.387V19H17V21H7.00002V19H11V5.387L7.23202 6.643L10.328 15.155C9.23702 16.292 7.70002 17 6.00002 17C4.29902 17 2.76302 16.292 1.67102 15.155L4.76502 6.643L1.73502 5.633L2.36802 3.735L6.00002 4.945L11 3.278V2H13ZM18 9.103L16.042 14.489C16.629 14.82 17.299 15 18 15C18.7 15 19.37 14.82 19.958 14.49L18 9.102V9.103ZM6.00002 9.103L4.04202 14.489C4.62902 14.82 5.29902 15 6.00002 15C6.70002 15 7.37002 14.82 7.95802 14.49L6.00002 9.102V9.103Z"/></g></g><defs><clipPath id="a"><rect width="24" height="24" fill="white"/></clipPath></defs></svg>

<svg width="24" height="24" fill="none" xmlns="http://www.w3.org/2000/svg"><g clip-path="url(#a)"><path d="M13 2v1.278l5 1.668 3.632-1.21.633 1.896-3.032 1.011 3.096 8.512A5.986 5.986 0 0 1 18 17a5.985 5.985 0 0 1-4.329-1.845l3.094-8.512L13 5.387V19h4v2H7v-2h4V5.387L7.232 6.643l3.096 8.512A5.982 5.982 0 0 1 6 17a5.985 5.985 0 0 1-4.329-1.845l3.094-8.512-3.03-1.01.633-1.898L6 4.945l5-1.667V2h2Zm5 7.103-1.958 5.386A3.975 3.975 0 0 0 18 15c.7 0 1.37-.18 1.958-.51L18 9.102v.001Zm-12 0-1.958 5.386A3.975 3.975 0 0 0 6 15c.7 0 1.37-.18 1.958-.51L6 9.102v.001Z" /></g><defs><clipPath id="a"><path fill="#fff" d="M0 0h24v24H0z"/></clipPath></defs></svg>
